dest/img/logo-name.svg

<?xml version="1.0" encoding="UTF-8"?>
<svg width="118px" height="15px" viewBox="0 0 118 15" version="1.1" xmlns="http://www.w3.org/2000/svg" xmlns:xlink="http://www.w3.org/1999/xlink">
    <!-- Generator: Sketch 61.2 (89653) - https://sketch.com -->
    <title>AJ_Name</title>
    <desc>Created with Sketch.</desc>
    <defs>
        <polygon id="path-1" points="0 45.7142857 171.428571 45.7142857 171.428571 0.176857143 0 0.176857143"></polygon>
    </defs>
    <g id="Welcome" stroke="none" stroke-width="1" fill="none" fill-rule="evenodd">
        <g id="Creative_Hover" transform="translate(-77.000000, -32.000000)">
            <g id="Group-16" transform="translate(23.000000, 17.000000)">
                <g id="AJ_Name" transform="translate(0.000000, 0.108857)">
                    <path d="M91.2028571,21.8180857 C91.656,21.8180857 92.0128571,21.7023714 92.2725714,21.4686571 C92.532,21.2360857 92.6628571,20.8932286 92.6628571,20.4398 L92.6628571,19.5600857 C92.6628571,19.1069429 92.532,18.7640857 92.2725714,18.5303714 C92.0128571,18.2966571 91.656,18.1809429 91.2028571,18.1809429 L88.0051429,18.1809429 L88.0051429,21.8180857 L91.2028571,21.8180857 Z M88.0051429,29.4938 L84.9665714,29.4938 L84.9665714,15.5418 L91.5828571,15.5418 C92.2225714,15.5418 92.8028571,15.6495143 93.3217143,15.8615143 C93.8417143,16.0758 94.2848571,16.3789429 94.6508571,16.7720857 C95.018,17.1649429 95.3008571,17.6338 95.5008571,18.1809429 C95.7002857,18.7278 95.8002857,19.3329429 95.8002857,20.0003714 C95.8002857,20.9466571 95.59,21.7718 95.1708571,22.4780857 C94.7511429,23.1852286 94.1142857,23.6969429 93.2622857,24.0175143 L96.0005714,29.4938 L92.622,29.4938 L90.1842857,24.3772286 L88.0051429,24.3772286 L88.0051429,29.4938 Z" id="Fill-4" fill="#191919"></path>
                    <mask id="mask-2" fill="white">
                        <use xlink:href="#path-1"></use>
                    </mask>
                    <g id="Clip-7"></g>
                    <polygon id="Fill-6" fill="#191919" mask="url(#mask-2)" points="99.744 29.4945714 102.702571 29.4945714 102.702571 15.5417143 99.744 15.5417143"></polygon>
                    <polygon id="Fill-8" fill="#191919" mask="url(#mask-2)" points="109.824771 29.4941429 105.327343 15.5421429 108.405629 15.5421429 110.483914 22.2381429 111.583057 26.6161429 111.643343 26.6161429 112.702771 22.2381429 114.781914 15.5421429 117.759914 15.5421429 113.223057 29.4941429"></polygon>
                    <polygon id="Fill-9" fill="#191919" mask="url(#mask-2)" points="123.716229 29.4941429 119.2188 15.5421429 122.297086 15.5421429 124.375371 22.2381429 125.474514 26.6161429 125.5348 26.6161429 126.594229 22.2381429 128.673371 15.5421429 131.651371 15.5421429 127.114229 29.4941429"></polygon>
                    <polygon id="Fill-10" fill="#191919" mask="url(#mask-2)" points="134.269943 29.4941429 134.269943 15.5421429 143.764229 15.5421429 143.764229 18.2404286 137.308229 18.2404286 137.308229 21.0787143 142.8448 21.0787143 142.8448 23.7775714 137.308229 23.7775714 137.308229 26.7958571 143.764229 26.7958571 143.764229 29.4941429"></polygon>
                    <path d="M153.438629,21.8180857 C153.891771,21.8180857 154.248629,21.7023714 154.508343,21.4686571 C154.767771,21.2360857 154.897486,20.8932286 154.897486,20.4398 L154.897486,19.5600857 C154.897486,19.1069429 154.767771,18.7640857 154.508343,18.5303714 C154.248629,18.2966571 153.891771,18.1809429 153.438629,18.1809429 L150.240629,18.1809429 L150.240629,21.8180857 L153.438629,21.8180857 Z M150.240629,29.4938 L147.202343,29.4938 L147.202343,15.5418 L153.818629,15.5418 C154.458057,15.5418 155.037486,15.6495143 155.557486,15.8615143 C156.077486,16.0758 156.519771,16.3789429 156.886629,16.7720857 C157.252914,17.1649429 157.535486,17.6338 157.736629,18.1809429 C157.936057,18.7278 158.036057,19.3329429 158.036057,20.0003714 C158.036057,20.9466571 157.825486,21.7718 157.405771,22.4780857 C156.986629,23.1852286 156.350057,23.6969429 155.4972,24.0175143 L158.235486,29.4938 L154.857771,29.4938 L152.418914,24.3772286 L150.240629,24.3772286 L150.240629,29.4938 Z" id="Fill-11" fill="#191919" mask="url(#mask-2)"></path>
                    <path d="M165.991343,29.7338286 C164.765057,29.7338286 163.725914,29.5235429 162.873057,29.1035429 C162.020486,28.6826857 161.294771,28.1395429 160.693914,27.4732571 L162.693343,25.4506857 C163.638771,26.5084 164.805057,27.0358286 166.191343,27.0358286 C166.937914,27.0358286 167.4902,26.8835429 167.849629,26.5806857 C168.210486,26.2764 168.3902,25.8741143 168.3902,25.3718286 C168.3902,24.9892571 168.282771,24.6684 168.0702,24.4115429 C167.857057,24.1541143 167.423343,23.9786857 166.771057,23.8858286 L165.391343,23.7081143 C163.9122,23.5209714 162.829629,23.0738286 162.143629,22.3678286 C161.456771,21.6595429 161.113914,20.7186857 161.113914,19.5452571 C161.113914,18.9178286 161.234486,18.3449714 161.473343,17.8238286 C161.713629,17.3041143 162.056486,16.8564 162.503343,16.4838286 C162.949343,16.1101143 163.4962,15.8192571 164.141914,15.6132571 C164.7882,15.4058286 165.525057,15.3026857 166.351057,15.3026857 C167.402771,15.3026857 168.329914,15.4695429 169.129629,15.8032571 C169.928771,16.1361143 170.614771,16.6235429 171.188486,17.2641143 L169.169629,19.3061143 C168.835914,18.9244 168.432771,18.6109714 167.9602,18.3672571 C167.487343,18.1232571 166.8902,18.0012571 166.171057,18.0012571 C165.491629,18.0012571 164.984771,18.1198286 164.651914,18.3569714 C164.319057,18.5944 164.1522,18.9244 164.1522,19.3461143 C164.1522,19.8215429 164.2822,20.1635429 164.542486,20.3749714 C164.8022,20.5861143 165.224486,20.7384 165.811343,20.8301143 L167.190486,21.0504 C168.6302,21.2766857 169.695343,21.7206857 170.388771,22.3806857 C171.081629,23.0406857 171.428486,23.9786857 171.428486,25.1929714 C171.428486,25.8586857 171.307914,26.4721143 171.068771,27.0329714 C170.829057,27.5926857 170.478486,28.0738286 170.018771,28.4744 C169.558771,28.8735429 168.988771,29.1841143 168.309343,29.4049714 C167.629914,29.6244 166.857057,29.7338286 165.991343,29.7338286" id="Fill-12" fill="#191919" mask="url(#mask-2)"></path>
                    <path d="M61.2265714,18.2851429 L61.1265714,18.2851429 L59.584,23.5934286 L62.7894286,23.5934286 L61.2265714,18.2851429 Z M64.5308571,29.5025714 L63.53,26.1777143 L58.8631429,26.1777143 L57.862,29.5025714 L54.7771429,29.5025714 L59.384,15.522 L63.15,15.522 L67.6965714,29.5025714 L64.5308571,29.5025714 Z" id="Fill-13" fill="#191919" mask="url(#mask-2)"></path>
                    <path d="M77.5354286,15.5220286 L77.5354286,15.5214571 L73.6582857,15.5214571 L73.6574286,15.5220286 L71.3105714,15.5220286 L71.3502857,18.0346 L74.8031429,18.0346 L74.8031429,25.2606 C74.8031429,26.2143143 74.0274286,26.9903143 73.0737143,26.9903143 C72.12,26.9903143 71.3442857,26.2143143 71.3442857,25.2606 L71.3442857,23.5848857 L68.6117143,23.5848857 L68.6117143,23.5851714 L68.6042857,23.5851714 L68.6042857,23.6374571 L68.6117143,23.6266 L68.6117143,25.2606 C68.6117143,27.7208857 70.6131429,29.7226 73.0737143,29.7226 C75.534,29.7226 77.5354286,27.7208857 77.5354286,25.2606 L77.5354286,15.5431714 L77.5517143,15.5220286 L77.5354286,15.5220286 Z" id="Fill-14" fill="#191919" mask="url(#mask-2)"></path>
                </g>
            </g>
        </g>
    </g>
</svg>

<svg width="118" height="15" viewBox="0 0 118 15" xmlns="http://www.w3.org/2000/svg" xmlns:xlink="http://www.w3.org/1999/xlink"><defs><path id="path-1" d="M0 45.714h171.429V.177H0z"/></defs><g id="Welcome" stroke="none" stroke-width="1" fill="none" fill-rule="evenodd"><g id="Creative_Hover" transform="translate(-77 -32)"><g id="Group-16" transform="translate(23 17)"><g id="AJ_Name" transform="translate(0 .109)"><path d="M91.203 21.818c.453 0 .81-.116 1.07-.35.259-.232.39-.575.39-1.028v-.88c0-.453-.131-.796-.39-1.03-.26-.233-.617-.35-1.07-.35h-3.198v3.638h3.198zm-3.198 7.676h-3.038V15.542h6.616c.64 0 1.22.108 1.739.32.52.214.963.517 1.329.91.367.393.65.862.85 1.409.2.547.3 1.152.3 1.82 0 .946-.211 1.77-.63 2.477-.42.707-1.057 1.219-1.909 1.54l2.739 5.476h-3.379l-2.438-5.117h-2.179v5.117z" id="Fill-4" fill="#191919"/><mask id="mask-2" fill="#fff"><use xlink:href="#path-1"/></mask><path id="Fill-6" fill="#191919" mask="url(#mask-2)" d="M99.744 29.495h2.959V15.542h-2.959z"/><path id="Fill-8" fill="#191919" mask="url(#mask-2)" d="M109.825 29.494l-4.498-13.952h3.079l2.078 6.696 1.1 4.378h.06l1.059-4.378 2.079-6.696h2.978l-4.537 13.952z"/><path id="Fill-9" fill="#191919" mask="url(#mask-2)" d="M123.716 29.494l-4.497-13.952h3.078l2.078 6.696 1.1 4.378h.06l1.06-4.378 2.078-6.696h2.978l-4.537 13.952z"/><path id="Fill-10" fill="#191919" mask="url(#mask-2)" d="M134.27 29.494V15.542h9.494v2.698h-6.456v2.839h5.537v2.699h-5.537v3.018h6.456v2.698z"/><path d="M153.439 21.818c.453 0 .81-.116 1.07-.35.259-.232.388-.575.388-1.028v-.88c0-.453-.13-.796-.389-1.03-.26-.233-.616-.35-1.07-.35h-3.197v3.638h3.198zm-3.198 7.676h-3.039V15.542h6.617c.64 0 1.218.108 1.738.32.52.214.963.517 1.33.91.366.393.648.862.85 1.409.2.547.3 1.152.3 1.82 0 .946-.212 1.77-.631 2.477-.42.707-1.056 1.219-1.909 1.54l2.738 5.476h-3.377l-2.44-5.117h-2.177v5.117z" id="Fill-11" fill="#191919" mask="url(#mask-2)"/><path d="M165.991 29.734c-1.226 0-2.265-.21-3.118-.63a7.172 7.172 0 01-2.18-1.63l2-2.023c.946 1.057 2.112 1.585 3.498 1.585.747 0 1.3-.152 1.659-.455.36-.305.54-.707.54-1.21 0-.382-.107-.703-.32-.96-.213-.257-.647-.432-1.299-.525l-1.38-.178c-1.479-.187-2.561-.634-3.247-1.34-.687-.708-1.03-1.65-1.03-2.823 0-.627.12-1.2.36-1.721a3.78 3.78 0 011.03-1.34c.445-.374.992-.665 1.638-.87.646-.208 1.383-.311 2.21-.311 1.05 0 1.978.167 2.778.5a5.63 5.63 0 012.058 1.461l-2.018 2.042a4.06 4.06 0 00-1.21-.939c-.473-.244-1.07-.366-1.789-.366-.68 0-1.186.119-1.52.356-.332.237-.499.567-.499.99 0 .475.13.817.39 1.028.26.211.682.363 1.27.455l1.378.22c1.44.227 2.505.67 3.199 1.33.693.66 1.04 1.599 1.04 2.813 0 .666-.121 1.28-.36 1.84-.24.56-.59 1.04-1.05 1.441-.46.4-1.03.71-1.71.931-.68.22-1.452.329-2.318.329" id="Fill-12" fill="#191919" mask="url(#mask-2)"/><path d="M61.227 18.285h-.1l-1.543 5.308h3.205l-1.562-5.308zm3.304 11.218l-1.001-3.325h-4.667l-1.001 3.325h-3.085l4.607-13.981h3.766l4.547 13.98H64.53z" id="Fill-13" fill="#191919" mask="url(#mask-2)"/><path d="M77.535 15.522h-6.224l.04 2.513h3.452v7.226c0 .953-.776 1.73-1.73 1.73a1.732 1.732 0 01-1.729-1.73v-1.676h-2.74v.052l.008-.01v1.634a4.467 4.467 0 004.462 4.462 4.467 4.467 0 004.461-4.462v-9.718l.017-.021h-.017z" id="Fill-14" fill="#191919" mask="url(#mask-2)"/></g></g></g></g></svg>
